icons/mobile/24/svg/lightbulb-24.svg

<svg width="24" height="24" viewBox="0 0 24 24" fill="none" xmlns="http://www.w3.org/2000/svg">
<path fill-rule="evenodd" clip-rule="evenodd" d="M11.8379 2.12638C12.4186 2.11392 13.0126 2.16806 13.6123 2.29337C16.4422 2.88533 18.724 5.15776 19.3262 7.98575L19.3809 8.26798C19.8642 11.0142 18.8427 13.5622 17.001 15.2123V18.6137C17.001 20.2636 15.8034 21.6847 14.168 21.9486C13.32 22.0853 12.5807 22.1225 12.002 22.1225C11.1845 22.1225 10.4345 22.049 9.76758 21.9379C8.13796 21.6668 7.00319 20.2236 7.00293 18.6205L7.00098 15.2133C5.46753 13.8415 4.50111 11.8451 4.50098 9.62442C4.50098 5.5374 7.77141 2.21373 11.8379 2.12638ZM15.251 16.1645C14.5036 16.44 13.5396 16.6926 12.4043 16.7416L12 16.7504C10.6902 16.7497 9.5853 16.4746 8.75098 16.1674L8.75293 18.6195L8.75977 18.768C8.82445 19.4987 9.3627 20.0962 10.0547 20.2113C10.6357 20.3082 11.2896 20.3725 12.002 20.3725C12.5051 20.3725 13.1497 20.3404 13.8896 20.2211L14.0332 20.1908C14.7403 20.0091 15.251 19.362 15.251 18.6137V16.1645ZM11.876 3.8754C8.75861 3.94223 6.25098 6.49156 6.25098 9.62442C6.25112 11.4224 7.07629 13.0268 8.37109 14.0815C8.8858 14.3591 9.84613 14.7989 11.125 14.9477V11.7377L8.88086 9.49356C8.54021 9.15161 8.54016 8.59818 8.88086 8.25626C9.22286 7.91426 9.77714 7.91426 10.1191 8.25626L12 10.1381L13.8809 8.25626C14.2229 7.91426 14.7771 7.91426 15.1191 8.25626C15.4598 8.59818 15.4598 9.15161 15.1191 9.49356L12.875 11.7377V14.9486C14.1566 14.8 15.1182 14.357 15.6318 14.0795C17.1697 12.8236 18.0481 10.7924 17.6562 8.56876L17.6143 8.35001C17.1707 6.26721 15.5138 4.56556 13.4541 4.05216L13.2539 4.00626C12.7817 3.90761 12.3211 3.86587 11.876 3.8754Z" fill="black"/>
</svg>

<!-- This Source Code Form is subject to the terms of the Mozilla Public
   - License, v. 2.0. If a copy of the MPL was not distributed with this
   - file, You can obtain one at http://mozilla.org/MPL/2.0/. -->
<svg xmlns="http://www.w3.org/2000/svg" width="24" height="24" fill="none" viewBox="0 0 24 24">
    <path fill="#000" fill-rule="evenodd" d="M11.838 2.126a8 8 0 0 1 1.774.167c2.83.592 5.112 2.865 5.714 5.693l.055.282A7.5 7.5 0 0 1 17 15.212v3.402a3.38 3.38 0 0 1-2.833 3.335 13.6 13.6 0 0 1-4.4-.011c-1.63-.271-2.765-1.714-2.765-3.317L7 15.213a7.5 7.5 0 0 1 4.837-13.087m3.413 14.039a9.4 9.4 0 0 1-2.847.577L12 16.75a9.4 9.4 0 0 1-3.249-.583l.002 2.452.007.149c.064.73.603 1.328 1.295 1.443a11.8 11.8 0 0 0 3.835.01l.143-.03a1.63 1.63 0 0 0 1.218-1.577zm-3.375-12.29a5.75 5.75 0 0 0-5.625 5.75c0 1.797.825 3.402 2.12 4.457a7.7 7.7 0 0 0 2.754.866v-3.21L8.881 9.494a.875.875 0 0 1 1.238-1.237L12 10.137l1.88-1.882a.875.875 0 0 1 1.24 1.238l-2.245 2.244v3.21a7.7 7.7 0 0 0 2.757-.869 5.75 5.75 0 0 0 2.024-5.51l-.042-.219c-.443-2.083-2.1-3.784-4.16-4.298l-.2-.046a6 6 0 0 0-1.378-.13" clip-rule="evenodd" />
</svg>
